azure-patterns/svg-explore.svg

<svg xmlns="http://www.w3.org/2000/svg" viewBox="0 0 50 50">
                                
                            
    <path d="M5.59173633,39.3922118 L22.5369903,20.3449828 C23.0489536,19.7697555 22.9970259,18.8800364 22.4214328,18.3680731 L19.3211294,15.609688 C18.7455363,15.097359 17.8558172,15.1496524 17.3442196,15.7248797 L0.3986,34.7721087 C-0.113363303,35.347336 -0.0614355963,36.2370551 0.514157431,36.7490184 L3.61482661,39.5074036 C4.19005394,40.0193669 5.07977303,39.9674392 5.59173633,39.3922118" fill="#505050"></path>
    <path d="M12.6558791,20.952793 L12.2883626,21.3451763 C11.4677586,22.3303399 12.2865342,23.9177919 13.7386815,25.2097678 C15.1904632,26.5013781 16.9274815,26.8524387 17.5685327,26.0424396 L17.9356835,25.6500563" fill="#2E2E2E"></path>
    <path d="M12.0351968,13.8379658 C12.0351968,20.2082521 17.199078,25.372499 23.5693643,25.372499 C29.9396505,25.372499 35.1035318,20.2082521 35.1035318,13.8379658 C35.1035318,7.46804527 29.9396505,2.30379829 23.5693643,2.30379829 C17.199078,2.30379829 12.0351968,7.46804527 12.0351968,13.8379658" fill="#A9EFFF"></path>
    <path d="M23.5694008,23.0269392 C18.5598399,23.0269392 14.4985082,18.9659731 14.4985082,13.9560465 C14.4985082,8.94648558 18.5598399,4.88551952 23.5694008,4.88551952 C28.5789618,4.88551952 32.6399278,8.94648558 32.6399278,13.9560465 C32.6399278,18.9659731 28.5789618,23.0269392 23.5694008,23.0269392 M23.5694008,0.0207710826 C15.872764,0.0207710826 9.63375974,6.2597753 9.63375974,13.9560465 C9.63375974,21.6523177 15.872764,27.8916876 23.5694008,27.8916876 C31.265672,27.8916876 37.5046763,21.6523177 37.5046763,13.9560465 C37.5046763,6.2597753 31.265672,0.0207710826 23.5694008,0.0207710826" fill="#505050"></path>
</svg>

<svg xmlns="http://www.w3.org/2000/svg" viewBox="0 0 50 50"><path d="M5.592 39.392l16.945-19.047a1.404 1.404 0 0 0-.116-1.977l-3.1-2.758a1.404 1.404 0 0 0-1.977.115L.4 34.772a1.404 1.404 0 0 0 .115 1.977l3.1 2.758c.576.512 1.466.46 1.978-.115" fill="#505050"/><path d="M12.656 20.953l-.368.392c-.82.985-.001 2.573 1.45 3.865 1.452 1.291 3.19 1.642 3.83.832l.368-.392" fill="#2E2E2E"/><path d="M12.035 13.838c0 6.37 5.164 11.534 11.534 11.534 6.37 0 11.535-5.164 11.535-11.534 0-6.37-5.164-11.534-11.535-11.534-6.37 0-11.534 5.164-11.534 11.534" fill="#A9EFFF"/><path d="M23.57 23.027a9.07 9.07 0 1 1 0-18.142 9.07 9.07 0 0 1 0 18.142m0-23.006C15.872.02 9.633 6.26 9.633 13.956c0 7.696 6.239 13.936 13.935 13.936 7.697 0 13.936-6.24 13.936-13.936S31.265.021 23.569.021" fill="#505050"/></svg>
